X: 8226
T: Copper Hills Of Beara, The
R: reel
M: 4/4
K: Gmajor
|:Bd(3ddd dedB|d2(3def gfed|Bd (3def gfed|(3efg deBA A2|
B3 A G2G F|EFGE D2 DC|B,DGA Bddc|Bd Ad G2 z2:|

